images_sukapura_svg/cmd/lc_entirecell.svg

<svg viewBox="0 0 24 24" xmlns="http://www.w3.org/2000/svg" xmlns:xlink="http://www.w3.org/1999/xlink"><linearGradient id="a" gradientUnits="userSpaceOnUse" x1="12" x2="12" y1="3" y2="21"><stop offset="0" stop-color="#efefef"/><stop offset=".33333334" stop-color="#fff"/><stop offset=".8888889" stop-color="#fff"/><stop offset="1" stop-color="#f5f5f5"/></linearGradient><filter id="b" color-interpolation-filters="sRGB" height="1.094553" width="1.097492" x="-.048746" y="-.047277"><feGaussianBlur stdDeviation=".36559322"/></filter><path d="m3 4h18v18.559322h-18z" filter="url(#b)" opacity=".15" stroke-width="1.015418"/><path d="m3 3h18v18h-18z" fill="url(#a)"/><path d="m3 2c-.554 0-1 .446-1 1v18c0 .554.446 1 1 1h18c.554 0 1-.446 1-1v-18c0-.554-.446-1-1-1zm0 1h5v2h-5zm6 0h6v2h-6zm7 0h5v2h-5zm-13 3h5v3h-5zm6 0h6v3h-6zm7 0h5v3h-5zm-13 4h5v3h-5zm6 0h6v3h-6zm7 0h5v3h-5zm-13 4h5v3h-5zm6 0h6v3h-6zm7 0h5v3h-5zm-13 4h5v3h-5zm6 0h6v3h-6zm7 0h5v3h-5z" fill="#bababa"/><path d="m3 2c-.554 0-1 .446-1 1v2 1 15c0 .554.446 1 1 1h18c.554 0 1-.446 1-1v-15-3c0-.554-.446-1-1-1zm0 1h5 1 6 1 5v2 1 3 1 3 1 3 1 3h-5-1-6-1-5v-3-1-3-1-3-1-3-1z" fill="#69696e"/><path d="m9 10h6v3h-6z" fill="#ff9f0a" stroke-width="1.06066"/><g fill="#c93400"><path d="m-9-13h1v3h-1z" stroke-width=".387298" transform="scale(-1)"/><path d="m9-16h1v7.999997h-1z" stroke-width=".948683" transform="rotate(90)"/><path d="m-16-13h1v3h-1z" stroke-width=".387298" transform="scale(-1)"/><path d="m13-16h1v8h-1z" stroke-width=".948683" transform="rotate(90)"/></g></svg>

<?xml version="1.0" encoding="UTF-8" standalone="no"?>
<svg
   xmlns:dc="http://purl.org/dc/elements/1.1/"
   xmlns:cc="http://creativecommons.org/ns#"
   xmlns:rdf="http://www.w3.org/1999/02/22-rdf-syntax-ns#"
   xmlns:svg="http://www.w3.org/2000/svg"
   xmlns="http://www.w3.org/2000/svg"
   xmlns:sodipodi="http://sodipodi.sourceforge.net/DTD/sodipodi-0.dtd"
   xmlns:inkscape="http://www.inkscape.org/namespaces/inkscape"
   viewBox="0 0 24 24"
   version="1.1"
   id="svg26"
   sodipodi:docname="lc_entirecell.svg"
   inkscape:version="0.92.3 (unknown)"
   inkscape:export-filename="/home/rizmut/Dokumen/Rizmut/Github/libreoffice-style-sukapura/images_sukapura/cmd/lc_entirecell.png"
   inkscape:export-xdpi="96"
   inkscape:export-ydpi="96">
  <metadata
     id="metadata32">
    <rdf:RDF>
      <cc:Work
         rdf:about="">
        <dc:format>image/svg+xml</dc:format>
        <dc:type
           rdf:resource="http://purl.org/dc/dcmitype/StillImage" />
        <dc:title />
      </cc:Work>
    </rdf:RDF>
  </metadata>
  <defs
     id="defs30" />
  <sodipodi:namedview
     pagecolor="#ffffff"
     bordercolor="#666666"
     borderopacity="1"
     objecttolerance="10"
     gridtolerance="10"
     guidetolerance="10"
     inkscape:pageopacity="0"
     inkscape:pageshadow="2"
     inkscape:window-width="1366"
     inkscape:window-height="706"
     id="namedview28"
     showgrid="true"
     inkscape:zoom="13.906433"
     inkscape:cx="3.1669106"
     inkscape:cy="10.286595"
     inkscape:window-x="0"
     inkscape:window-y="0"
     inkscape:window-maximized="1"
     inkscape:current-layer="svg26">
    <inkscape:grid
       type="xygrid"
       id="grid850" />
  </sodipodi:namedview>
  <linearGradient
     id="a"
     gradientUnits="userSpaceOnUse"
     x1="12"
     x2="12"
     y1="3"
     y2="21">
    <stop
       offset="0"
       stop-color="#efefef"
       id="stop2" />
    <stop
       offset=".33333334"
       stop-color="#fff"
       id="stop4" />
    <stop
       offset=".8888889"
       stop-color="#fff"
       id="stop6" />
    <stop
       offset="1"
       stop-color="#f5f5f5"
       id="stop8" />
  </linearGradient>
  <filter
     id="b"
     color-interpolation-filters="sRGB"
     height="1.094553"
     width="1.097492"
     x="-.048746"
     y="-.047277">
    <feGaussianBlur
       stdDeviation=".36559322"
       id="feGaussianBlur11" />
  </filter>
  <path
     d="m3 4h18v18.559322h-18z"
     filter="url(#b)"
     opacity=".15"
     stroke-width="1.015418"
     id="path14" />
  <path
     d="m3 3h18v18h-18z"
     fill="url(#a)"
     id="path16" />
  <path
     d="M 3 2 C 2.446 2 2 2.446 2 3 L 2 21 C 2 21.554 2.446 22 3 22 L 21 22 C 21.554 22 22 21.554 22 21 L 22 3 C 22 2.446 21.554 2 21 2 L 3 2 z M 3 3 L 8 3 L 8 5 L 3 5 L 3 3 z M 9 3 L 15 3 L 15 5 L 9 5 L 9 3 z M 16 3 L 21 3 L 21 5 L 16 5 L 16 3 z M 3 6 L 8 6 L 8 9 L 3 9 L 3 6 z M 9 6 L 15 6 L 15 9 L 9 9 L 9 6 z M 16 6 L 21 6 L 21 9 L 16 9 L 16 6 z M 3 10 L 8 10 L 8 13 L 3 13 L 3 10 z M 9 10 L 15 10 L 15 13 L 9 13 L 9 10 z M 16 10 L 21 10 L 21 13 L 16 13 L 16 10 z M 3 14 L 8 14 L 8 17 L 3 17 L 3 14 z M 9 14 L 15 14 L 15 17 L 9 17 L 9 14 z M 16 14 L 21 14 L 21 17 L 16 17 L 16 14 z M 3 18 L 8 18 L 8 21 L 3 21 L 3 18 z M 9 18 L 15 18 L 15 21 L 9 21 L 9 18 z M 16 18 L 21 18 L 21 21 L 16 21 L 16 18 z "
     id="path18"
     style="fill:#bababa;fill-opacity:1" />
  <path
     style="fill:#69696e;fill-opacity:1"
     d="M 3 2 C 2.446 2 2 2.446 2 3 L 2 5 L 2 6 L 2 21 C 2 21.554 2.446 22 3 22 L 21 22 C 21.554 22 22 21.554 22 21 L 22 6 L 22 3 C 22 2.446 21.554 2 21 2 L 3 2 z M 3 3 L 8 3 L 9 3 L 15 3 L 16 3 L 21 3 L 21 5 L 21 6 L 21 9 L 21 10 L 21 13 L 21 14 L 21 17 L 21 18 L 21 21 L 16 21 L 15 21 L 9 21 L 8 21 L 3 21 L 3 18 L 3 17 L 3 14 L 3 13 L 3 10 L 3 9 L 3 6 L 3 5 L 3 3 z "
     id="path22" />
  <rect
     style="fill:#ff9f0a;fill-opacity:1;stroke-width:1.06066012"
     id="rect3720"
     width="6"
     height="3"
     x="9"
     y="10" />
  <rect
     transform="scale(-1)"
     y="-13"
     x="-9"
     height="3"
     width="1"
     id="rect858"
     style="fill:#c93400;fill-opacity:1;stroke-width:0.38729835" />
  <rect
     style="fill:#c93400;fill-opacity:1;stroke-width:0.94868332"
     id="rect860"
     width="1"
     height="7.9999971"
     x="9"
     y="-16"
     transform="rotate(90)" />
  <rect
     style="fill:#c93400;fill-opacity:1;stroke-width:0.38729835"
     id="rect895"
     width="1"
     height="3"
     x="-16"
     y="-13"
     transform="scale(-1)" />
  <rect
     transform="rotate(90)"
     y="-16"
     x="13"
     height="8"
     width="1"
     id="rect899"
     style="fill:#c93400;fill-opacity:1;stroke-width:0.94868332" />
</svg>
